images/svg/insta.svg

<svg width="29" height="28" viewBox="0 0 29 28" fill="none" xmlns="http://www.w3.org/2000/svg">
<path d="M27.6174 14C27.6174 21.4619 21.6471 27.5 14.2959 27.5C6.94469 27.5 0.974426 21.4619 0.974426 14C0.974426 6.53809 6.94469 0.5 14.2959 0.5C21.6471 0.5 27.6174 6.53809 27.6174 14Z" stroke="#D4D4D8"/>
<path d="M14.3001 8.44721C16.0858 8.44721 16.2972 8.45398 17.0026 8.48656C17.4268 8.49182 17.8469 8.5707 18.2447 8.71979C18.5331 8.83248 18.7951 9.00511 19.0138 9.22656C19.2324 9.44802 19.4028 9.71339 19.5141 10.0056C19.6613 10.4085 19.7391 10.8341 19.7443 11.2637C19.7762 11.9782 19.7832 12.1924 19.7832 14.0011C19.7832 15.8098 19.7765 16.024 19.7443 16.7385C19.7391 17.1681 19.6613 17.5936 19.5141 17.9966C19.4028 18.2888 19.2324 18.5541 19.0138 18.7756C18.7951 18.997 18.5331 19.1697 18.2447 19.2824C17.8469 19.4315 17.4268 19.5103 17.0026 19.5156C16.2976 19.5479 16.0861 19.5549 14.3001 19.5549C12.5142 19.5549 12.3027 19.5482 11.5976 19.5156C11.1735 19.5103 10.7534 19.4315 10.3556 19.2824C10.0671 19.1697 9.80512 18.997 9.58648 18.7756C9.36785 18.5541 9.19743 18.2888 9.08617 17.9966C8.93899 17.5936 8.86111 17.1681 8.85592 16.7385C8.82407 16.024 8.81707 15.8098 8.81707 14.0011C8.81707 12.1924 8.82376 11.9782 8.85592 11.2637C8.86111 10.8341 8.93899 10.4085 9.08617 10.0056C9.19743 9.71339 9.36785 9.44802 9.58648 9.22656C9.80512 9.00511 10.0671 8.83248 10.3556 8.71979C10.7534 8.5707 11.1735 8.49182 11.5976 8.48656C12.303 8.4543 12.5145 8.44721 14.3001 8.44721ZM14.3001 7.22656C12.4849 7.22656 12.2562 7.2343 11.5428 7.26721C10.9878 7.27839 10.4386 7.38485 9.91865 7.58205C9.47263 7.75226 9.06865 8.019 8.7349 8.36366C8.39433 8.70184 8.13077 9.11127 7.96262 9.56334C7.76793 10.09 7.66284 10.6463 7.65179 11.2085C7.61995 11.9304 7.6123 12.162 7.6123 14.0008C7.6123 15.8395 7.61995 16.0711 7.65243 16.7937C7.66347 17.3559 7.76857 17.9122 7.96326 18.4388C8.13122 18.8908 8.39456 19.3002 8.7349 19.6385C9.06884 19.9832 9.47304 20.25 9.91928 20.4201C10.4392 20.6173 10.9884 20.7238 11.5435 20.7349C12.2568 20.7672 12.4845 20.7756 14.3008 20.7756C16.117 20.7756 16.3447 20.7679 17.0581 20.7349C17.6131 20.7238 18.1623 20.6173 18.6822 20.4201C19.1264 20.2457 19.5297 19.9794 19.8664 19.6381C20.2031 19.2968 20.4658 18.8882 20.6376 18.4382C20.8323 17.9115 20.9374 17.3553 20.9484 16.793C20.9803 16.0711 20.9879 15.8395 20.9879 14.0008C20.9879 12.162 20.9803 11.9304 20.9478 11.2079C20.9368 10.6456 20.8317 10.0893 20.637 9.56269C20.469 9.11068 20.2057 8.70126 19.8653 8.36301C19.5314 8.01828 19.1272 7.75153 18.681 7.5814C18.161 7.3842 17.6118 7.27775 17.0568 7.26656C16.344 7.2343 16.1154 7.22656 14.3001 7.22656Z" fill="white"/>
<path d="M14.3002 10.5234C13.6209 10.5234 12.957 10.7275 12.3922 11.1097C11.8274 11.492 11.3872 12.0353 11.1273 12.6709C10.8673 13.3066 10.7993 14.006 10.9318 14.6808C11.0644 15.3556 11.3914 15.9755 11.8717 16.462C12.352 16.9485 12.964 17.2798 13.6302 17.414C14.2964 17.5482 14.9869 17.4794 15.6145 17.2161C16.242 16.9528 16.7784 16.5069 17.1558 15.9348C17.5331 15.3627 17.7346 14.6902 17.7346 14.0021C17.7346 13.0795 17.3727 12.1947 16.7287 11.5423C16.0846 10.8899 15.211 10.5234 14.3002 10.5234ZM14.3002 16.2602C13.8593 16.2602 13.4283 16.1278 13.0617 15.8797C12.6951 15.6315 12.4093 15.2789 12.2406 14.8663C12.0719 14.4537 12.0277 13.9996 12.1138 13.5616C12.1998 13.1236 12.4121 12.7213 12.7239 12.4055C13.0356 12.0897 13.4329 11.8746 13.8653 11.7875C14.2977 11.7003 14.746 11.7451 15.1533 11.916C15.5607 12.0869 15.9088 12.3763 16.1538 12.7476C16.3987 13.119 16.5295 13.5555 16.5295 14.0021C16.5295 14.601 16.2946 15.1754 15.8765 15.5988C15.4585 16.0223 14.8914 16.2602 14.3002 16.2602Z" fill="white"/>
<path d="M17.8722 11.1981C18.3154 11.1981 18.6747 10.8341 18.6747 10.3852C18.6747 9.93621 18.3154 9.57227 17.8722 9.57227C17.429 9.57227 17.0697 9.93621 17.0697 10.3852C17.0697 10.8341 17.429 11.1981 17.8722 11.1981Z" fill="white"/>
</svg>

<svg xmlns="http://www.w3.org/2000/svg" width="29" height="28" fill="none"><path stroke="#D4D4D8" d="M27.617 14c0 7.462-5.97 13.5-13.321 13.5S.974 21.462.974 14 6.944.5 14.296.5C21.647.5 27.617 6.538 27.617 14Z"/><path fill="#fff" d="M14.3 8.447c1.786 0 1.997.007 2.703.04.424.005.844.084 1.242.233.288.112.55.285.769.507.218.221.389.486.5.779a3.8 3.8 0 0 1 .23 1.258c.032.714.04.928.04 2.737 0 1.809-.008 2.023-.04 2.737-.005.43-.083.856-.23 1.259a2.248 2.248 0 0 1-.5.779c-.219.221-.48.394-.77.506-.397.15-.817.228-1.241.234-.705.032-.917.039-2.703.039-1.786 0-1.997-.007-2.702-.04a3.669 3.669 0 0 1-1.242-.233 2.213 2.213 0 0 1-.77-.506 2.247 2.247 0 0 1-.5-.78 3.802 3.802 0 0 1-.23-1.258c-.032-.714-.039-.928-.039-2.737 0-1.809.007-2.023.039-2.737.005-.43.083-.855.23-1.258a2.212 2.212 0 0 1 1.27-1.286c.397-.15.818-.228 1.242-.233.705-.033.916-.04 2.702-.04Zm0-1.22c-1.815 0-2.044.007-2.757.04a4.855 4.855 0 0 0-1.624.315c-.446.17-.85.437-1.184.782-.34.338-.604.747-.772 1.2a5.03 5.03 0 0 0-.311 1.645c-.032.721-.04.953-.04 2.792 0 1.838.008 2.07.04 2.793a5.03 5.03 0 0 0 .311 1.645c.168.452.432.861.772 1.2.334.344.738.611 1.184.781.52.197 1.07.304 1.624.315.714.032.942.04 2.758.04s2.044-.007 2.757-.04a4.853 4.853 0 0 0 1.624-.315c.444-.174.848-.44 1.184-.782.337-.341.6-.75.772-1.2.194-.526.3-1.083.31-1.645.032-.722.04-.954.04-2.792 0-1.839-.008-2.07-.04-2.793a5.029 5.029 0 0 0-.311-1.645 3.323 3.323 0 0 0-.772-1.2 3.272 3.272 0 0 0-1.184-.782 4.856 4.856 0 0 0-1.624-.314c-.713-.033-.942-.04-2.757-.04Z"/><path fill="#fff" d="M14.3 10.523c-.68 0-1.343.204-1.908.587a3.47 3.47 0 0 0-1.265 1.56 3.52 3.52 0 0 0-.195 2.01c.132.676.46 1.296.94 1.782a3.42 3.42 0 0 0 1.758.952 3.394 3.394 0 0 0 1.984-.198 3.445 3.445 0 0 0 1.542-1.281 3.511 3.511 0 0 0-.427-4.393 3.412 3.412 0 0 0-2.429-1.019Zm0 5.737a2.21 2.21 0 0 1-1.238-.38 2.252 2.252 0 0 1-.821-1.014 2.285 2.285 0 0 1 .483-2.46 2.202 2.202 0 0 1 2.43-.49c.407.17.755.46 1 .832a2.28 2.28 0 0 1-.277 2.85 2.215 2.215 0 0 1-1.577.662ZM17.872 11.198a.808.808 0 0 0 .803-.813.808.808 0 0 0-.803-.813.808.808 0 0 0-.802.813c0 .45.359.813.802.813Z"/></svg>
